lib/preview/nrk-logo-preview-nrk-folkemusikk-with-bg.svg

<svg width="147" height="24" viewBox="0 0 147 24" fill="none" xmlns="http://www.w3.org/2000/svg">
<rect width="147" height="24" fill="#7B0A02"/>
<path d="M6.00427 18V6.00109H9.94146V18H6.00427ZM15.2981 7.91078L17.5623 18H13.2534L10.5498 6.00109H12.9664C13.5206 5.9939 14.0583 6.18925 14.4788 6.55039C14.8999 6.89638 15.1892 7.3767 15.2981 7.91078ZM18.1538 18V6.00109H22.091V18H18.1538ZM25.0647 10.5641C24.6405 10.5682 24.223 10.4572 23.8568 10.243C23.4955 10.0341 23.1954 9.73396 22.9865 9.3726C22.7721 9.00633 22.661 8.58876 22.6652 8.16432C22.6604 7.74246 22.7715 7.32738 22.9865 6.96443C23.1976 6.60699 23.4974 6.31009 23.8568 6.10252C24.2231 5.8885 24.6405 5.77751 25.0647 5.78138C25.4865 5.77684 25.9014 5.88793 26.2645 6.10252C26.6203 6.31191 26.9169 6.60856 27.1263 6.96443C27.3411 7.32748 27.4522 7.74249 27.4476 8.16432C27.4515 8.58873 27.3405 9.00623 27.1263 9.3726C26.9191 9.73238 26.6222 10.0323 26.2645 10.243C25.9014 10.458 25.4862 10.5691 25.0642 10.5641H25.0647ZM28.0559 18V6.00109H31.9934V18H28.0559ZM36.978 12.5582C36.9891 12.5699 37.0735 12.7079 37.2314 12.9723C37.3893 13.2367 37.5949 13.5747 37.8482 13.9863C38.1017 14.3977 38.3692 14.8343 38.6506 15.296C38.932 15.7577 39.1969 16.1944 39.4451 16.6058C39.6924 17.0172 39.974 17.4819 40.29 18H35.9641C35.6936 17.5606 35.4484 17.1635 35.2288 16.8086C35.0091 16.4537 34.7756 16.0706 34.5281 15.6594C34.2801 15.2485 34.0349 14.8485 33.7925 14.4595C33.5501 14.0704 33.3418 13.7296 33.1675 13.4371C32.9926 13.1443 32.8714 12.9471 32.8039 12.8455C32.6368 12.5934 32.5379 12.3023 32.517 12.0005C32.5337 11.7109 32.6269 11.431 32.787 11.1891C32.8546 11.0764 32.9786 10.8764 33.1588 10.5891C33.3391 10.3018 33.5503 9.96105 33.7925 9.56672C34.0347 9.17239 34.2799 8.7696 34.5281 8.35837C34.7763 7.94715 35.0098 7.56124 35.2288 7.20071C35.4488 6.84055 35.6939 6.44059 35.9641 6.00081H40.29L36.9439 11.4595C36.8404 11.6216 36.782 11.8083 36.7749 12.0005C36.786 12.2023 36.8565 12.3963 36.9774 12.5582H36.978Z" fill="white"/>
<path d="M44.8615 18.0015H46.636V13.0498H51.1652L51.3511 11.5797H46.636V7.48963H52.7707V6.00241H44.8615V18.0015Z" fill="#FFC7BD"/>
<path d="M59.8097 9.73799C59.1055 9.36381 58.3168 9.1775 57.5197 9.19714C56.7152 9.17881 55.9198 9.37106 55.2125 9.75484C54.5598 10.1203 54.026 10.666 53.6749 11.3266C53.2933 12.0677 53.1043 12.893 53.1253 13.7264C53.1039 14.5532 53.2806 15.3732 53.6408 16.1178C53.9645 16.7677 54.4809 17.3018 55.1196 17.6472C55.807 18.0074 56.5745 18.1876 57.3504 18.1711C58.1627 18.1872 58.9656 17.9954 59.6829 17.6137C60.3523 17.2482 60.9012 16.6962 61.2631 16.0248C61.6557 15.2748 61.8505 14.4372 61.8292 13.5909C61.8486 12.785 61.6685 11.9867 61.305 11.2672C60.9682 10.6211 60.448 10.0891 59.8097 9.73799ZM59.708 15.3995C59.5184 15.8388 59.1966 16.2081 58.7872 16.4558C58.3761 16.6914 57.9089 16.8112 57.4352 16.8025C56.9706 16.8141 56.5126 16.6908 56.1167 16.4476C55.7251 16.1873 55.4193 15.817 55.2378 15.3832C55.0081 14.8265 54.8988 14.2275 54.917 13.6256C54.8972 13.0399 55.0067 12.4569 55.2378 11.9184C55.4274 11.4951 55.7434 11.1409 56.1423 10.9043C56.5687 10.6697 57.0499 10.553 57.5363 10.5664C57.9162 10.5568 58.2938 10.6289 58.6435 10.7776C58.9498 10.9157 59.2169 11.1278 59.4209 11.3947C59.6388 11.6845 59.7966 12.0147 59.8854 12.3662C59.9911 12.7775 60.0423 13.201 60.0375 13.6256C60.0573 14.2338 59.9449 14.839 59.708 15.3995Z" fill="#FFC7BD"/>
<path d="M66.5862 16.7591C66.5273 16.7657 66.4681 16.7687 66.4088 16.7681C66.2816 16.7718 66.155 16.7487 66.0373 16.7003C65.935 16.6544 65.8473 16.5813 65.7838 16.489C65.7104 16.3795 65.6614 16.2555 65.6402 16.1254C65.6096 15.9526 65.5954 15.7772 65.5979 15.6017V5.24219L63.8738 5.49573V16.3625C63.8666 16.6473 63.9126 16.9311 64.0093 17.1991C64.0901 17.417 64.2236 17.6115 64.3979 17.7653C64.5713 17.9141 64.7766 18.0211 64.9979 18.0779C65.2435 18.1417 65.4963 18.1729 65.75 18.1708C65.8852 18.1708 66.0145 18.1652 66.1387 18.1542C66.2629 18.1432 66.3838 18.1261 66.5021 18.1032C66.6204 18.0804 66.7186 18.0582 66.7975 18.0359L66.9665 16.7005L66.7635 16.7343C66.6964 16.7456 66.6372 16.7538 66.5862 16.7591Z" fill="#FFC7BD"/>
<path d="M76.0422 9.38243H73.9297L71.0378 12.5597H70.4145V5.24219L68.691 5.49573V18.0018H70.4145V13.8613H70.4427L73.8956 18.0018H76.1264L72.027 13.3825L76.0422 9.38243Z" fill="#FFC7BD"/>
<path d="M83.5963 10.4725C83.2719 10.052 82.8439 9.72301 82.3541 9.51767C81.81 9.29554 81.2264 9.18625 80.6388 9.19653C80.0468 9.18651 79.4593 9.30168 78.9149 9.53452C78.4198 9.75131 77.9784 10.0745 77.6221 10.481C77.255 10.9079 76.9788 11.4054 76.8106 11.9428C76.618 12.5579 76.524 13.1996 76.532 13.8441C76.5081 14.6584 76.679 15.4667 77.0303 16.2017C77.3516 16.8386 77.8703 17.3544 78.5091 17.672C79.2586 18.025 80.081 18.1958 80.9092 18.1705C81.3075 18.1738 81.7056 18.1484 82.1004 18.0945C82.4304 18.047 82.7557 17.9706 83.0724 17.8663C83.3863 17.7609 83.6915 17.6309 83.985 17.4776L84.1033 16.1763C83.889 16.2552 83.6721 16.3341 83.4524 16.4129C83.2327 16.4918 83.0046 16.5622 82.7682 16.6242C82.5295 16.6867 82.2867 16.7318 82.0415 16.7591C81.7946 16.7875 81.5463 16.8017 81.2978 16.8016C80.8541 16.8088 80.4112 16.7605 79.9794 16.6579C79.6312 16.5745 79.309 16.4061 79.0417 16.1678C78.7717 15.9106 78.5737 15.5872 78.4671 15.2299C78.3567 14.8679 78.2947 14.493 78.2829 14.1147H84.3903C84.4736 13.4156 84.4422 12.7076 84.2974 12.0186C84.1785 11.4585 83.9393 10.931 83.5963 10.4725ZM79.3374 10.8784C79.7339 10.6373 80.1919 10.5169 80.6556 10.5316C81.1198 10.5084 81.5783 10.6424 81.957 10.9119C82.2935 11.1805 82.5336 11.5512 82.6411 11.9682C82.7257 12.2765 82.7672 12.5949 82.7645 12.9145H78.32C78.3514 12.5776 78.4233 12.2456 78.5344 11.9259C78.6788 11.4975 78.9613 11.1291 79.3374 10.8784Z" fill="#FFC7BD"/>
<path d="M98.1808 9.55146C97.72 9.30118 97.2008 9.17865 96.6767 9.19655C96.2219 9.19522 95.7702 9.27242 95.3416 9.42472C94.9063 9.58064 94.4964 9.7999 94.1251 10.0754C93.9145 10.2314 93.7143 10.4007 93.5254 10.5823C93.3521 10.1592 93.0466 9.80355 92.6545 9.56837C92.1881 9.31682 91.6631 9.1943 91.1335 9.21347C90.6815 9.21365 90.2328 9.29082 89.8068 9.44164C89.3695 9.59552 88.9567 9.81177 88.5813 10.0838C88.4599 10.1714 88.3424 10.2663 88.2264 10.3655V9.21429L86.5025 9.46784V18.0024H88.2264V11.5744C88.4295 11.4414 88.6412 11.322 88.8601 11.217C89.1283 11.0904 89.4085 10.9912 89.6967 10.9212C89.9623 10.8557 90.2346 10.8217 90.5081 10.8198C90.7591 10.8122 91.0091 10.8555 91.243 10.9469C91.4368 11.0288 91.6079 11.1562 91.7419 11.3184C91.8885 11.5068 91.9898 11.7266 92.0377 11.9606C92.1034 12.2631 92.1345 12.5721 92.1306 12.8816V18.0024H93.8544V12.5264C93.8556 12.2032 93.8338 11.8802 93.7891 11.5601C93.9845 11.4317 94.1868 11.3142 94.3952 11.2083C94.6586 11.0757 94.9364 10.9736 95.223 10.904C95.4942 10.8377 95.7723 10.8037 96.0514 10.8026C96.2997 10.7965 96.5466 10.8396 96.7781 10.9294C96.9752 11.0097 97.1494 11.1375 97.2851 11.3014C97.4321 11.4896 97.5332 11.7094 97.5806 11.9434C97.6466 12.2458 97.6779 12.5547 97.6738 12.8642V18.0021H99.3976V12.5095C99.4192 11.8703 99.3158 11.233 99.0934 10.6334C98.9182 10.1812 98.597 9.80039 98.1808 9.55146Z" fill="#FFC7BD"/>
<path d="M107.645 15.898C107.517 15.9755 107.391 16.0476 107.264 16.1087C107.064 16.207 106.858 16.2945 106.648 16.3709C106.447 16.4435 106.241 16.5 106.031 16.54C105.816 16.5801 105.598 16.5999 105.38 16.5991C105.023 16.6128 104.668 16.5343 104.349 16.3712C104.076 16.2157 103.864 15.971 103.749 15.678C103.61 15.3144 103.544 14.9268 103.555 14.5375V9.21402L101.831 9.4675V14.8415C101.81 15.4828 101.922 16.1215 102.161 16.7174C102.357 17.1874 102.709 17.5755 103.158 17.8159C103.658 18.0655 104.213 18.1875 104.772 18.1711C105.125 18.1735 105.477 18.1309 105.819 18.0444C106.146 17.9598 106.462 17.8349 106.758 17.6726C107.062 17.5051 107.351 17.3098 107.619 17.0892C107.669 17.0489 107.718 17.0016 107.767 16.9591L108.016 18.0013H109.352L109.368 9.2132L107.645 9.46667V15.898Z" fill="#FFC7BD"/>
<path d="M117.345 14.1148C117.172 13.9311 116.973 13.7744 116.754 13.6498C116.527 13.5199 116.289 13.4096 116.043 13.3202C115.863 13.2639 115.686 13.2047 115.511 13.1428C115.337 13.0808 115.162 13.0244 114.987 12.9737C114.813 12.923 114.644 12.8696 114.48 12.8132C114.327 12.7611 114.178 12.699 114.033 12.6273C113.894 12.5535 113.761 12.4687 113.635 12.3738C113.519 12.2865 113.422 12.1775 113.348 12.0527C113.274 11.9246 113.235 11.7785 113.238 11.6302C113.233 11.4673 113.275 11.3063 113.357 11.1654C113.445 11.0271 113.567 10.9136 113.712 10.8359C113.888 10.7389 114.079 10.6704 114.278 10.6328C114.526 10.5855 114.777 10.563 115.03 10.5655C115.153 10.5655 115.289 10.5714 115.435 10.5824C115.582 10.5933 115.742 10.6137 115.917 10.6418C116.092 10.67 116.266 10.7066 116.441 10.7511C116.615 10.7956 116.793 10.8472 116.973 10.9035C117.14 10.9549 117.304 11.0171 117.463 11.0897L117.582 9.72051C117.367 9.63056 117.156 9.55158 116.948 9.48361C116.74 9.41631 116.528 9.35987 116.314 9.31458C116.105 9.2704 115.893 9.2394 115.68 9.22167C115.472 9.20477 115.266 9.1963 115.064 9.1963C114.597 9.19151 114.131 9.24547 113.678 9.35687C113.29 9.45126 112.921 9.61129 112.588 9.83005C112.285 10.0302 112.038 10.3034 111.869 10.6244C111.693 10.9781 111.606 11.3699 111.616 11.7652C111.611 12.0498 111.656 12.3332 111.751 12.6017C111.831 12.8271 111.951 13.0361 112.106 13.2185C112.256 13.391 112.43 13.5418 112.621 13.6664C112.821 13.7975 113.033 13.9079 113.255 13.996C113.379 14.0412 113.508 14.0862 113.644 14.1309C113.779 14.1756 113.912 14.218 114.041 14.2582C114.17 14.2976 114.297 14.3369 114.421 14.3762C114.545 14.4159 114.666 14.4551 114.785 14.4945C114.903 14.5339 115.018 14.5705 115.131 14.6043C115.282 14.6579 115.429 14.7228 115.57 14.7987C115.695 14.8643 115.811 14.9437 115.917 15.0353C116.01 15.117 116.085 15.2179 116.136 15.3311C116.188 15.448 116.214 15.5747 116.213 15.7025C116.219 15.8276 116.197 15.9525 116.148 16.068C116.1 16.1836 116.027 16.2869 115.934 16.3707C115.725 16.5453 115.475 16.6644 115.207 16.7168C114.894 16.786 114.573 16.8201 114.252 16.8183C114.052 16.817 113.851 16.8029 113.652 16.776C113.433 16.7478 113.202 16.7084 112.959 16.6577C112.717 16.607 112.469 16.5451 112.216 16.4718C111.962 16.3986 111.706 16.317 111.447 16.227L111.514 17.6636C111.807 17.765 112.075 17.8466 112.317 17.9086C112.56 17.9705 112.791 18.0241 113.01 18.0691C113.222 18.113 113.437 18.1413 113.652 18.1537C113.861 18.1647 114.072 18.1703 114.286 18.1703C114.758 18.1727 115.228 18.1244 115.689 18.0263C116.095 17.944 116.483 17.7927 116.838 17.5788C117.158 17.3836 117.422 17.1102 117.607 16.7844C117.8 16.427 117.896 16.025 117.886 15.6186C117.893 15.3221 117.844 15.0269 117.742 14.7483C117.651 14.5137 117.517 14.2987 117.345 14.1148Z" fill="#FFC7BD"/>
<path d="M121.408 5.67287C121.233 5.56566 121.031 5.51 120.826 5.5123C120.617 5.51073 120.413 5.56628 120.234 5.67287C120.058 5.77622 119.91 5.92133 119.803 6.09538C119.696 6.27076 119.64 6.47287 119.643 6.67845C119.641 6.88662 119.697 7.09122 119.803 7.26992C119.907 7.44675 120.055 7.59266 120.234 7.69242C120.415 7.79375 120.619 7.84619 120.826 7.84453C121.03 7.8469 121.231 7.79436 121.408 7.69242C121.582 7.59193 121.726 7.44584 121.823 7.26992C121.924 7.08937 121.977 6.8855 121.975 6.67845C121.977 6.474 121.925 6.27265 121.823 6.09538C121.722 5.92211 121.58 5.77684 121.408 5.67287Z" fill="#FFC7BD"/>
<path d="M119.931 18.0015H121.655V9.21347L119.931 9.46695V18.0015Z" fill="#FFC7BD"/>
<path d="M131.643 9.38243H129.53L126.638 12.5597H126.015V5.24219L124.291 5.49573V18.0018H126.015V13.8613H126.043L129.496 18.0018H131.727L127.627 13.3825L131.643 9.38243Z" fill="#FFC7BD"/>
<path d="M138.369 18.0015H140.6L136.5 13.3822L140.515 9.38243H138.403L135.511 12.5597H134.887V5.24219L133.164 5.49573V18.0018H134.887V13.8613H134.916L138.369 18.0015Z" fill="#FFC7BD"/>
</svg>

<svg xmlns="http://www.w3.org/2000/svg" viewBox="0 0 147 24"><path fill="#7B0A02" d="M0 0h147v24H0z"/><path fill="#fff" d="M6.004 18V6.001h3.937V18H6.004Zm9.294-10.09L17.562 18h-4.309L10.55 6.001h2.416a2.276 2.276 0 0 1 1.513.55c.42.345.71.826.82 1.36ZM18.154 18V6.001h3.937V18h-3.937Zm6.91-7.436a2.383 2.383 0 0 1-2.4-2.4 2.303 2.303 0 0 1 .323-1.2 2.411 2.411 0 0 1 3.278-.861c.355.209.652.506.861.861.215.363.326.778.322 1.2a2.4 2.4 0 0 1-1.183 2.079 2.302 2.302 0 0 1-1.2.321ZM28.057 18V6.001h3.937V18h-3.937Zm8.922-5.442c.011.012.096.15.253.414.158.265.364.603.617 1.014a315.936 315.936 0 0 1 1.597 2.62c.247.411.529.876.845 1.394h-4.326c-.27-.44-.516-.837-.735-1.191-.22-.355-.453-.738-.7-1.15-.249-.41-.494-.81-.737-1.2-.242-.389-.45-.73-.625-1.022-.174-.293-.296-.49-.363-.591a1.748 1.748 0 0 1-.287-.845c.017-.29.11-.57.27-.812.068-.113.192-.313.372-.6s.391-.628.633-1.022c.243-.395.488-.797.736-1.209l.7-1.157.736-1.2h4.326l-3.346 5.458a1.08 1.08 0 0 0-.17.542c.012.201.082.395.203.557h.001Z"/><path fill="#FFC7BD" d="M44.861 18.002h1.775V13.05h4.53l.185-1.47h-4.715V7.49h6.135V6.002h-7.91v12ZM59.81 9.738a4.637 4.637 0 0 0-2.29-.54 4.617 4.617 0 0 0-2.308.557 3.898 3.898 0 0 0-1.537 1.572 4.969 4.969 0 0 0-.55 2.4 5.184 5.184 0 0 0 .516 2.39c.324.65.84 1.185 1.479 1.53.687.36 1.455.54 2.23.524a4.764 4.764 0 0 0 2.333-.557 3.94 3.94 0 0 0 1.58-1.59c.393-.75.587-1.587.566-2.433a4.892 4.892 0 0 0-.524-2.324 3.694 3.694 0 0 0-1.495-1.529Zm-.102 5.662a2.3 2.3 0 0 1-.92 1.056 2.622 2.622 0 0 1-1.353.346 2.404 2.404 0 0 1-1.318-.354 2.382 2.382 0 0 1-.88-1.065 4.27 4.27 0 0 1-.32-1.757c-.02-.586.09-1.17.32-1.708.19-.423.506-.777.905-1.014a2.736 2.736 0 0 1 1.394-.338c.38-.01.758.063 1.108.212.306.138.573.35.777.617.218.29.376.62.464.971.106.412.157.835.153 1.26a4.205 4.205 0 0 1-.33 1.774ZM66.586 16.76a1.46 1.46 0 0 1-.177.008.908.908 0 0 1-.372-.068.612.612 0 0 1-.253-.211.918.918 0 0 1-.144-.364 2.777 2.777 0 0 1-.042-.523V5.242l-1.724.254v10.867c-.007.284.039.568.135.836a1.408 1.408 0 0 0 .989.879c.245.064.498.095.752.093.135 0 .264-.006.389-.017a3.67 3.67 0 0 0 .659-.118l.168-1.335-.203.033c-.067.012-.126.02-.177.025ZM76.042 9.382H73.93l-2.892 3.178h-.623V5.242l-1.724.254v12.506h1.724v-4.14h.028l3.453 4.14h2.23l-4.099-4.62 4.015-4ZM83.596 10.473a3.066 3.066 0 0 0-1.242-.955 4.338 4.338 0 0 0-1.715-.321 4.203 4.203 0 0 0-1.724.338c-.495.216-.937.54-1.293.946a4.138 4.138 0 0 0-.811 1.462 6.109 6.109 0 0 0-.279 1.901 5.12 5.12 0 0 0 .498 2.358c.322.637.84 1.152 1.48 1.47.749.353 1.571.524 2.4.498.398.004.796-.022 1.19-.076.33-.047.656-.123.972-.228a6.31 6.31 0 0 0 .913-.388l.118-1.302c-.214.08-.43.158-.65.237-.22.079-.448.15-.685.211a5.094 5.094 0 0 1-.727.135 6.485 6.485 0 0 1-.743.043 5.33 5.33 0 0 1-1.319-.144 2.168 2.168 0 0 1-.937-.49 2.14 2.14 0 0 1-.575-.938 4.28 4.28 0 0 1-.184-1.115h6.107a6.47 6.47 0 0 0-.093-2.096 3.95 3.95 0 0 0-.7-1.546Zm-4.259.405a2.391 2.391 0 0 1 1.319-.346c.464-.024.922.11 1.301.38.337.268.577.64.684 1.056.085.309.126.627.123.947H78.32c.031-.337.103-.67.214-.99.145-.428.427-.796.803-1.047ZM98.18 9.551a2.94 2.94 0 0 0-1.503-.354 3.953 3.953 0 0 0-1.335.228 4.703 4.703 0 0 0-1.217.65 6.13 6.13 0 0 0-.6.507 2.119 2.119 0 0 0-.87-1.014 2.977 2.977 0 0 0-1.522-.355c-.451 0-.9.078-1.326.229a4.809 4.809 0 0 0-1.58.924V9.214l-1.725.254v8.534h1.724v-6.428c.204-.133.415-.252.634-.357.268-.127.549-.226.837-.296.265-.065.538-.1.811-.101.251-.008.501.035.735.127.194.082.365.21.499.371.146.189.248.409.296.643.065.302.097.611.093.92v5.121h1.723v-5.476a6.805 6.805 0 0 0-.065-.966c.195-.128.398-.246.606-.352.264-.132.541-.234.828-.304.271-.066.55-.1.828-.101.249-.007.496.037.727.126.197.08.371.208.507.372.147.189.248.408.296.642.066.303.097.612.093.921v5.138h1.724V12.51a4.917 4.917 0 0 0-.305-1.877 2.177 2.177 0 0 0-.912-1.082ZM107.645 15.898c-.128.078-.254.15-.381.21-.2.099-.406.186-.616.263a4.04 4.04 0 0 1-.617.169c-.215.04-.433.06-.651.06a2.089 2.089 0 0 1-1.031-.229 1.377 1.377 0 0 1-.6-.693 2.96 2.96 0 0 1-.194-1.14V9.213l-1.724.253v5.374c-.021.642.091 1.28.33 1.876.196.47.548.859.997 1.099.5.25 1.055.372 1.614.355.353.003.705-.04 1.047-.127a4.08 4.08 0 0 0 .939-.371c.304-.168.593-.363.861-.584.05-.04.099-.087.148-.13l.249 1.042h1.336l.016-8.788-1.723.254v6.431ZM117.345 14.115a2.531 2.531 0 0 0-.591-.465 4.585 4.585 0 0 0-.711-.33c-.18-.056-.357-.115-.532-.177a9.138 9.138 0 0 0-.524-.17c-.174-.05-.343-.103-.507-.16a3.694 3.694 0 0 1-.447-.186 3 3 0 0 1-.398-.253 1.109 1.109 0 0 1-.287-.321.813.813 0 0 1-.11-.423.872.872 0 0 1 .119-.465.956.956 0 0 1 .355-.33c.176-.096.367-.165.566-.202.248-.047.499-.07.752-.067a5.451 5.451 0 0 1 .887.076c.175.028.349.065.524.11.174.044.352.095.532.151.167.052.331.114.49.187l.119-1.37a8.419 8.419 0 0 0-.634-.236 6.295 6.295 0 0 0-.634-.17 5.121 5.121 0 0 0-.634-.092 7.617 7.617 0 0 0-.616-.026 5.567 5.567 0 0 0-1.386.16 3.487 3.487 0 0 0-1.09.474c-.303.2-.55.473-.719.794a2.424 2.424 0 0 0-.253 1.141c-.005.285.04.568.135.837.08.225.2.434.355.617.15.172.324.323.515.447.2.131.412.242.634.33.124.045.253.09.389.135.135.045.268.087.397.127a38.039 38.039 0 0 1 .744.237c.118.039.233.075.346.11.151.053.298.118.439.194.125.065.241.145.347.236a.87.87 0 0 1 .296.668.842.842 0 0 1-.279.668 1.618 1.618 0 0 1-.727.346c-.313.069-.634.103-.955.101a4.714 4.714 0 0 1-.6-.042 9.077 9.077 0 0 1-.693-.118c-.242-.051-.49-.113-.743-.186-.254-.073-.51-.155-.769-.245l.067 1.437c.293.101.561.183.803.245.243.062.474.115.693.16.212.044.427.072.642.085.209.01.42.016.634.016.472.003.942-.046 1.403-.144a3.617 3.617 0 0 0 1.149-.447c.32-.195.584-.469.769-.795.193-.357.289-.759.279-1.165a2.369 2.369 0 0 0-.144-.87 1.968 1.968 0 0 0-.397-.634ZM121.408 5.673a1.091 1.091 0 0 0-.582-.16 1.138 1.138 0 0 0-.592.16 1.248 1.248 0 0 0-.431.422 1.09 1.09 0 0 0-.16.583c-.002.209.054.413.16.592.104.177.252.323.431.422.181.102.385.154.592.153.204.002.405-.05.582-.153.174-.1.318-.246.415-.422.101-.18.154-.384.152-.592a1.146 1.146 0 0 0-.152-.583 1.197 1.197 0 0 0-.415-.422ZM119.931 18.002h1.724V9.213l-1.724.254v8.534ZM131.643 9.382h-2.113l-2.892 3.178h-.623V5.242l-1.724.254v12.506h1.724v-4.14h.028l3.453 4.14h2.231l-4.1-4.62 4.016-4ZM138.369 18.002h2.231l-4.1-4.62 4.015-4h-2.112l-2.892 3.178h-.624V5.242l-1.723.254v12.506h1.723v-4.14h.029l3.453 4.14Z"/></svg>
